X: 10388
T: Donald Blue
R: reel
M: 4/4
K: Dmajor
dBAF AFAB|dBAF E2 D2|dBAF AFA2|BABc B2 A2:|
|:ABde fafd|fa af ed B2|ABde fafd|BABc B2 A2:|

